src/assets/images/clients/doordash_logo.svg

<svg width="152" height="18" viewBox="0 0 152 18" fill="none" xmlns="http://www.w3.org/2000/svg">
<g clip-path="url(#clip0_615_5258)">
<path d="M43.8288 4.9782V12.6946H45.7528C46.2438 12.6873 46.7283 12.5817 47.1778 12.3838C47.6272 12.186 48.0324 11.9 48.3694 11.5428C49.0611 10.8106 49.4395 9.8372 49.4241 8.83004C49.4388 8.32979 49.3544 7.83157 49.176 7.364C48.9975 6.89644 48.7284 6.46874 48.3841 6.1055C48.0457 5.74782 47.6377 5.46319 47.1852 5.26915C46.7326 5.07511 46.2452 4.97576 45.7528 4.97722H43.8298L43.8288 4.9782ZM45.7528 2.55878C49.3387 2.55878 52.0515 5.33729 52.0515 8.83004C52.0515 12.3228 49.3387 15.117 45.7528 15.117H41.5095C41.469 15.1165 41.4291 15.108 41.3919 15.0921C41.3547 15.0761 41.321 15.053 41.2928 15.024C41.2645 14.995 41.2423 14.9608 41.2273 14.9232C41.2123 14.8856 41.2048 14.8455 41.2053 14.805V2.88353C41.2053 2.71085 41.3417 2.57056 41.5095 2.57056L45.7528 2.55878V2.55878ZM61.2946 12.9635C62.9232 12.9684 64.3939 11.9667 65.0208 10.4253C65.3279 9.67226 65.41 8.84627 65.2571 8.04748C65.1042 7.2487 64.7229 6.51141 64.1594 5.92497C63.6058 5.34817 62.8902 4.9529 62.1071 4.7914C61.3241 4.62989 60.5105 4.70973 59.7738 5.02039C58.2688 5.65615 57.2857 7.16019 57.2828 8.83004C57.2828 11.1062 59.0763 12.9527 61.2955 12.9635H61.2946ZM61.2955 2.27426C65.0699 2.27426 67.9553 5.24899 67.9553 8.83004C67.9553 12.4111 65.0699 15.3858 61.2946 15.3858C57.5202 15.3858 54.6593 12.4258 54.6593 8.83004C54.6593 5.23427 57.5448 2.27426 61.2946 2.27426H61.2955ZM77.1238 12.9635C79.3441 12.9576 81.1405 11.1092 81.1385 8.83299C81.1356 6.55485 79.3352 4.71036 77.116 4.70938C74.8947 4.70938 73.0934 6.55289 73.0905 8.83004C73.0905 9.92693 73.5153 10.9787 74.2717 11.7538C74.642 12.1357 75.085 12.4396 75.5748 12.6474C76.0645 12.8551 76.5909 12.9626 77.1228 12.9635H77.1238ZM77.1228 2.27426C80.8854 2.27426 83.7708 5.23427 83.7708 8.83004C83.7708 12.4258 80.8736 15.3858 77.1228 15.3858C73.373 15.3858 70.463 12.4258 70.463 8.83004C70.463 5.23427 73.3485 2.27426 77.1228 2.27426ZM92.5714 4.9782H89.8586V8.29926H92.5714C92.7857 8.30876 92.9998 8.27423 93.2002 8.19779C93.4007 8.12135 93.5834 8.00462 93.737 7.85482C94.0509 7.55067 94.2295 7.1288 94.2334 6.68534C94.2413 6.46035 94.2037 6.2361 94.1227 6.02602C94.0418 5.81595 93.9193 5.6244 93.7625 5.46287C93.6085 5.30391 93.4231 5.17892 93.2179 5.09595C93.0128 5.01299 92.7926 4.97388 92.5714 4.98115V4.9782ZM87.2342 2.88353C87.2342 2.71085 87.3715 2.57056 87.5393 2.57056H92.6469C95.0821 2.57056 96.8441 4.40033 96.8441 6.69809C96.8628 8.25217 96.0141 9.67969 94.6592 10.3753L97.0149 14.6461C97.0474 14.6952 97.0658 14.7523 97.0679 14.8112C97.07 14.8701 97.0557 14.9284 97.0266 14.9796C96.9983 15.0301 96.956 15.0714 96.9049 15.0985C96.8537 15.1256 96.7959 15.1375 96.7382 15.1327H94.671C94.6136 15.1335 94.5573 15.1181 94.5083 15.0882C94.4593 15.0584 94.4198 15.0153 94.3943 14.9639L92.124 10.7373H89.8488V14.7952C89.8495 14.8357 89.8421 14.876 89.8272 14.9137C89.8122 14.9514 89.79 14.9858 89.7617 15.0148C89.7335 15.0439 89.6998 15.0671 89.6625 15.0831C89.6253 15.0992 89.5852 15.1077 89.5447 15.1082H87.553C87.5125 15.1077 87.4724 15.0992 87.4352 15.0831C87.3979 15.0671 87.3642 15.0439 87.336 15.0148C87.3077 14.9858 87.2855 14.9514 87.2705 14.9137C87.2556 14.876 87.2482 14.8357 87.2489 14.7952L87.2351 2.88451L87.2342 2.88353ZM103.684 5.03707V12.7545H105.607C106.098 12.7478 106.583 12.6428 107.032 12.4457C107.482 12.2485 107.888 11.9632 108.225 11.6066C108.917 10.8752 109.296 9.90255 109.282 8.89578C109.297 8.39491 109.214 7.89588 109.036 7.42744C108.858 6.959 108.589 6.5304 108.245 6.16633C107.906 5.80804 107.497 5.52306 107.043 5.329C106.59 5.13494 106.102 5.03592 105.608 5.03805L103.684 5.03707V5.03707ZM105.607 2.61471C109.193 2.61471 111.906 5.39616 111.906 8.89578C111.906 12.3954 109.193 15.1769 105.607 15.1769H101.377C101.336 15.1763 101.296 15.1678 101.259 15.1518C101.222 15.1358 101.188 15.1126 101.16 15.0835C101.132 15.0544 101.109 15.0201 101.094 14.9824C101.079 14.9447 101.072 14.9044 101.073 14.8639V2.94338C101.073 2.76972 101.209 2.62942 101.377 2.62942L105.608 2.61471H105.607ZM119.908 5.68362L118.42 9.81017H121.394L119.908 5.68362V5.68362ZM117.547 12.1423L116.572 14.8894C116.553 14.954 116.512 15.0103 116.457 15.0494C116.402 15.0885 116.336 15.1081 116.268 15.1052H114.155C114.101 15.1102 114.047 15.1007 113.998 15.0776C113.949 15.0544 113.907 15.0186 113.877 14.9738C113.846 14.9284 113.828 14.8759 113.823 14.8212C113.818 14.7666 113.828 14.7117 113.851 14.6618L118.417 2.75206C118.438 2.68926 118.479 2.63513 118.534 2.59794C118.589 2.56074 118.655 2.54251 118.721 2.54603H121.085C121.152 2.54229 121.218 2.56042 121.273 2.59763C121.328 2.63484 121.369 2.68909 121.391 2.75206L125.957 14.6618C125.979 14.7117 125.989 14.7667 125.984 14.8214C125.979 14.876 125.96 14.9285 125.929 14.9738C125.899 15.0184 125.857 15.054 125.808 15.077C125.759 15.1 125.705 15.1094 125.652 15.1042H123.539C123.472 15.1071 123.405 15.0875 123.35 15.0484C123.295 15.0093 123.255 14.953 123.235 14.8884L122.261 12.1413H117.547V12.1423ZM128.406 5.95146C128.406 3.97943 130.068 2.27426 132.693 2.27426C134.106 2.2427 135.475 2.77138 136.5 3.74495C136.531 3.77447 136.556 3.81006 136.573 3.84954C136.59 3.88901 136.599 3.93154 136.599 3.97453C136.599 4.01751 136.59 4.06004 136.573 4.09951C136.556 4.13899 136.531 4.17458 136.5 4.20411L135.329 5.39616C135.301 5.42511 135.268 5.44814 135.231 5.46387C135.194 5.4796 135.154 5.48771 135.113 5.48771C135.073 5.48771 135.033 5.4796 134.996 5.46387C134.959 5.44814 134.926 5.42511 134.898 5.39616C134.346 4.87943 133.622 4.58665 132.867 4.57497C131.817 4.57497 131.041 5.19993 131.041 5.92105C131.041 8.25217 137.244 6.90707 137.244 11.3927C137.241 13.6659 135.567 15.3858 132.606 15.3858C131.783 15.3942 130.968 15.2372 130.208 14.924C129.447 14.6109 128.758 14.148 128.18 13.5629C128.149 13.5334 128.124 13.4978 128.107 13.4583C128.09 13.4189 128.081 13.3763 128.081 13.3333C128.081 13.2904 128.09 13.2478 128.107 13.2084C128.124 13.1689 128.149 13.1333 128.18 13.1038L129.312 11.9421C129.34 11.9118 129.374 11.8875 129.412 11.871C129.45 11.8544 129.491 11.8458 129.533 11.8458C129.574 11.8458 129.615 11.8544 129.653 11.871C129.691 11.8875 129.725 11.9118 129.754 11.9421C130.466 12.6485 131.426 13.0496 132.429 13.0606C133.741 13.0606 134.605 12.3424 134.605 11.4427C134.605 9.11064 128.405 10.4567 128.405 5.97011L128.406 5.95146ZM148.494 2.86783V7.58109H143.243V2.86783C143.243 2.82738 143.236 2.78721 143.221 2.74964C143.206 2.71206 143.184 2.67781 143.155 2.64884C143.127 2.61987 143.093 2.59674 143.056 2.58078C143.019 2.56483 142.979 2.55635 142.939 2.55584H140.947C140.907 2.55635 140.867 2.56483 140.829 2.58078C140.792 2.59674 140.759 2.61987 140.73 2.64884C140.702 2.67781 140.68 2.71206 140.665 2.74964C140.65 2.78721 140.642 2.82738 140.643 2.86783V14.7756C140.643 14.9483 140.78 15.0886 140.947 15.0886H142.939C143.105 15.0886 143.243 14.9483 143.243 14.7756V9.98776H148.49V14.7756C148.49 14.9483 148.627 15.0886 148.794 15.0886H150.786C150.953 15.0886 151.09 14.9483 151.09 14.7756V2.86783C151.09 2.82738 151.083 2.78721 151.068 2.74964C151.053 2.71206 151.031 2.67781 151.002 2.64884C150.974 2.61987 150.94 2.59674 150.903 2.58078C150.866 2.56483 150.826 2.55635 150.786 2.55584H148.794C148.713 2.5579 148.636 2.5918 148.58 2.6502C148.524 2.7086 148.493 2.78679 148.494 2.86783V2.86783ZM30.0256 4.14524C28.6442 1.58454 25.9412 -0.00976609 23.0018 4.50233e-05H0.761961C0.611769 0.000654671 0.465077 0.0454463 0.340163 0.128839C0.215249 0.212231 0.117635 0.330537 0.0594851 0.469016C0.00218475 0.606607 -0.0127388 0.758171 0.0166259 0.904295C0.0459906 1.05042 0.118307 1.18445 0.224312 1.28922L5.06904 6.09667C5.4968 6.52247 6.07958 6.76088 6.68591 6.76088H22.3641C23.4816 6.74911 24.395 7.63407 24.4067 8.73586C24.4185 9.83765 23.5228 10.7403 22.4053 10.7511H11.5964C11.4461 10.7511 11.2991 10.7954 11.1738 10.8785C11.0486 10.9615 10.9505 11.0796 10.8919 11.2181C10.8341 11.3558 10.8188 11.5077 10.848 11.6542C10.8772 11.8008 10.9495 11.9352 11.0558 12.0402L15.9034 16.8516C16.3339 17.2772 16.915 17.5156 17.5203 17.5148H22.4092C28.7697 17.5148 33.5791 10.804 30.0256 4.1423" fill="#99BAFF"/>
</g>
<defs>
<clipPath id="clip0_615_5258">
<rect width="151.091" height="17.66" fill="white"/>
</clipPath>
</defs>
</svg>

<svg xmlns="http://www.w3.org/2000/svg" width="152" height="18" fill="none" xmlns:v="https://vecta.io/nano"><g clip-path="url(#A)"><path d="M43.829 4.978v7.716h1.924a3.67 3.67 0 0 0 2.617-1.152c.692-.732 1.07-1.706 1.055-2.713a3.8 3.8 0 0 0-1.04-2.725 3.61 3.61 0 0 0-2.631-1.128H43.83l-.001.001zm1.924-2.419c3.586 0 6.299 2.779 6.299 6.271s-2.713 6.287-6.299 6.287H41.51a.31.31 0 0 1-.118-.025c-.037-.016-.071-.039-.099-.068s-.05-.063-.066-.101a.31.31 0 0 1-.022-.118V2.884c0-.173.136-.313.304-.313l4.243-.012h0zm15.542 10.405c1.629.005 3.099-.997 3.726-2.538.307-.753.389-1.579.236-2.378s-.534-1.536-1.098-2.123a3.95 3.95 0 0 0-4.386-.905c-1.505.636-2.488 2.14-2.491 3.81 0 2.276 1.794 4.123 4.013 4.133h-.001zm.001-10.689c3.774 0 6.66 2.975 6.66 6.556s-2.885 6.556-6.661 6.556-6.635-2.96-6.635-6.556 2.886-6.556 6.635-6.556h.001zm15.828 10.689c2.22-.006 4.017-1.854 4.015-4.131s-1.803-4.123-4.022-4.124-4.023 1.844-4.025 4.121c0 1.097.425 2.149 1.181 2.924a3.98 3.98 0 0 0 2.851 1.21h.001zm-.001-10.689c3.763 0 6.648 2.96 6.648 6.556s-2.897 6.556-6.648 6.556-6.66-2.96-6.66-6.556 2.886-6.556 6.66-6.556zm15.449 2.704h-2.713v3.321h2.713a1.57 1.57 0 0 0 1.166-.444c.314-.304.493-.726.496-1.169a1.67 1.67 0 0 0-.471-1.222c-.154-.159-.339-.284-.545-.367s-.425-.122-.647-.115v-.003zm-5.337-2.095a.31.31 0 0 1 .305-.313h5.108c2.435 0 4.197 1.83 4.197 4.128.019 1.554-.83 2.982-2.185 3.677l2.356 4.271a.32.32 0 0 1 .053.165c.002.059-.012.117-.041.168a.3.3 0 0 1-.122.119c-.051.027-.109.039-.167.034h-2.067c-.057.001-.114-.015-.163-.044s-.089-.073-.114-.124l-2.27-4.227h-2.275v4.058c.001.04-.007.081-.022.119s-.037.072-.066.101-.062.052-.099.068-.077.025-.118.025h-1.992c-.04-.001-.081-.009-.118-.025s-.071-.039-.099-.068-.05-.063-.066-.101-.022-.078-.022-.119l-.014-11.911-.001-.001zm16.45 2.154v7.717h1.923a3.67 3.67 0 0 0 1.425-.309c.45-.197.856-.482 1.193-.839.692-.731 1.071-1.704 1.057-2.711a3.81 3.81 0 0 0-.246-1.468c-.178-.468-.447-.897-.791-1.261-.339-.358-.748-.643-1.202-.837s-.941-.293-1.435-.291l-1.924-.001h0zm1.923-2.422a6.2 6.2 0 0 1 6.299 6.281 6.2 6.2 0 0 1-6.299 6.281h-4.23c-.041-.001-.081-.009-.118-.025s-.071-.039-.099-.068-.051-.063-.066-.101a.3.3 0 0 1-.021-.119V2.943c0-.174.136-.314.304-.314l4.231-.015h-.001zm14.301 3.069L118.42 9.81h2.974l-1.486-4.127h0zm-2.361 6.459l-.975 2.747c-.019.065-.06.121-.115.16s-.121.059-.189.056h-2.113c-.054.005-.108-.005-.157-.028a.3.3 0 0 1-.121-.104.32.32 0 0 1-.054-.153c-.005-.055.005-.109.028-.159l4.566-11.91a.3.3 0 0 1 .117-.154c.055-.037.121-.055.187-.052h2.364c.067-.004.133.014.188.052a.31.31 0 0 1 .118.154l4.566 11.91c.022.05.032.105.027.16s-.024.107-.055.152-.072.08-.121.103a.3.3 0 0 1-.156.027h-2.113c-.067.003-.134-.017-.189-.056s-.095-.095-.115-.16l-.974-2.747h-4.714v.001zm10.859-6.191c0-1.972 1.662-3.677 4.287-3.677 1.413-.032 2.782.497 3.807 1.471a.32.32 0 0 1 .073.105c.017.039.026.082.026.125s-.009.086-.026.125a.32.32 0 0 1-.073.105l-1.171 1.192a.3.3 0 0 1-.216.092.3.3 0 0 1-.215-.092 3.04 3.04 0 0 0-2.031-.821c-1.05 0-1.826.625-1.826 1.346 0 2.331 6.203.986 6.203 5.472-.003 2.273-1.677 3.993-4.638 3.993-.823.008-1.638-.149-2.398-.462s-1.45-.776-2.028-1.361a.32.32 0 0 1-.073-.105c-.017-.039-.026-.082-.026-.125s.009-.085.026-.125a.32.32 0 0 1 .073-.105l1.132-1.162c.028-.03.062-.055.1-.071s.079-.025.121-.025a.3.3 0 0 1 .12.025c.038.016.072.041.101.071a3.86 3.86 0 0 0 2.675 1.119c1.312 0 2.176-.718 2.176-1.618 0-2.332-6.2-.986-6.2-5.473l.001-.019zm20.088-3.084v4.713h-5.251V2.868c0-.04-.007-.081-.022-.118s-.037-.072-.066-.101-.062-.052-.099-.068-.077-.024-.117-.025h-1.992c-.04.001-.08.009-.118.025s-.07.039-.099.068a.31.31 0 0 0-.065.101.3.3 0 0 0-.022.118v11.908a.31.31 0 0 0 .304.313h1.992a.31.31 0 0 0 .304-.313V9.988h5.247v4.788a.31.31 0 0 0 .304.313h1.992a.31.31 0 0 0 .304-.313V2.868c0-.04-.007-.081-.022-.118s-.037-.072-.066-.101-.062-.052-.099-.068-.077-.024-.117-.025h-1.992c-.081.002-.158.036-.214.094a.31.31 0 0 0-.086.218h0zM30.026 4.145C28.644 1.585 25.941-.01 23.002 0H.762C.612.001.465.045.34.129S.118.331.059.469a.75.75 0 0 0-.043.435.75.75 0 0 0 .208.385l4.845 4.807c.428.426 1.011.664 1.617.664h15.678c1.117-.012 2.031.873 2.043 1.975s-.884 2.004-2.001 2.015H11.596c-.15 0-.297.044-.423.127s-.223.201-.282.34a.75.75 0 0 0 .164.822l4.848 4.811c.431.426 1.012.664 1.617.663h4.889c6.361 0 11.17-6.711 7.616-13.373" fill="#99baff"/></g><defs><clipPath id="A"><path fill="#fff" d="M0 0h151.091v17.66H0z"/></clipPath></defs></svg>
